public/home-page/icons.svg

<svg aria-hidden="true" style="position:absolute;width:0;height:0;overflow:hidden" xmlns="http://www.w3.org/2000/svg">
    <defs>
        <symbol id="icon-glass" viewBox="0 0 32 32">
            <path fill="#407bff" style="fill:var(--color1, #407bff)"
                d="m5.565 2.783 1.901 26.363v.072h16.367l1.901-26.353v-.082H5.565zm17.596 25.696H8.144L6.718 8.732h.784l1.289 17.403c.008.092.049.177.115.24s.153.098.244.099h.03a.363.363 0 0 0 .247-.124.375.375 0 0 0 .086-.265L8.224 8.734h16.362L23.16 28.481zm1.476-20.485H8.169l-.283-3.847c-.009-.094-.052-.181-.122-.244s-.16-.097-.252-.095c-.095.009-.183.055-.245.129s-.094.169-.088.266l.283 3.795h-.794l-.324-4.483h18.617l-.324 4.478z" />
            <path fill="#407bff" style="fill:var(--color1, #407bff)"
                d="M11.36 12.384c.236 0 .467-.071.663-.204s.349-.322.439-.543a1.229 1.229 0 0 0-.259-1.319 1.187 1.187 0 0 0-1.3-.262c-.218.092-.404.247-.535.446a1.223 1.223 0 0 0 .148 1.528c.223.227.527.355.844.355zm0-1.687a.467.467 0 0 1 .434.294.482.482 0 0 1-.102.52.469.469 0 0 1-.803-.338c0-.127.05-.248.138-.337s.208-.14.333-.14zM11.354 16.318c.003.239.076.472.209.669s.321.35.539.439a1.178 1.178 0 0 0 1.296-.274 1.216 1.216 0 0 0 .248-1.319c-.091-.22-.245-.408-.442-.54a1.18 1.18 0 0 0-1.509.162 1.209 1.209 0 0 0-.342.864zm1.659 0a.47.47 0 0 1-.562.468.47.47 0 0 1-.37-.375.484.484 0 0 1 .2-.49.467.467 0 0 1 .594.06c.089.09.138.211.138.337zM19.834 16.349c.236 0 .467-.071.663-.204s.349-.322.439-.543a1.229 1.229 0 0 0-.259-1.319 1.187 1.187 0 0 0-1.3-.262c-.218.092-.404.247-.535.446a1.223 1.223 0 0 0 .148 1.528c.223.227.527.355.844.355zm0-1.683a.466.466 0 0 1 .435.296.492.492 0 0 1 .026.276.473.473 0 0 1-.372.373.461.461 0 0 1-.482-.207.482.482 0 0 1 .062-.6.469.469 0 0 1 .331-.138zM15.678 14.066c.236 0 .467-.071.663-.204s.349-.322.439-.543A1.229 1.229 0 0 0 16.521 12a1.183 1.183 0 0 0-1.835.184 1.223 1.223 0 0 0 .149 1.528c.224.227.527.355.844.355zm0-1.687a.467.467 0 0 1 .434.294.482.482 0 0 1-.102.52.465.465 0 0 1-.724-.073.481.481 0 0 1-.079-.265.488.488 0 0 1 .128-.354.461.461 0 0 1 .342-.149v.026zM13.402 20.929c.005.197.067.387.178.548s.267.285.448.357a.974.974 0 0 0 1.065-.232 1.005 1.005 0 0 0 .203-1.086 1.001 1.001 0 0 0-.363-.445.975.975 0 0 0-.545-.167c-.264.007-.514.118-.699.309s-.287.449-.287.716zm.986-.267a.262.262 0 0 1 .243.165.27.27 0 0 1-.057.291.264.264 0 0 1-.287.058.262.262 0 0 1-.162-.246c0-.071.028-.139.077-.189s.116-.078.186-.078zM18.17 19.816a1.008 1.008 0 0 0 .962-.614 1.042 1.042 0 0 0-.208-1.133c-.142-.146-.325-.245-.524-.285s-.405-.018-.591.063c-.186.08-.345.216-.454.389a1.042 1.042 0 0 0 .131 1.277c.181.186.426.294.684.304zm0-1.267c.07 0 .137.028.186.078a.27.27 0 0 1 0 .378c-.049.05-.116.078-.186.078s-.138-.028-.188-.078-.079-.118-.08-.189a.282.282 0 0 1 .079-.19.263.263 0 0 1 .189-.076zM20.253 11.538a1.017 1.017 0 0 0 .934-.633 1.037 1.037 0 0 0-.219-1.118.999.999 0 0 0-1.556.155 1.038 1.038 0 0 0 .126 1.295c.189.192.447.3.715.3zm0-1.267c.039-.011.08-.013.12-.006s.078.024.11.049a.27.27 0 0 1 .077.332.282.282 0 0 1-.077.094.254.254 0 0 1-.23.043c-.039.011-.08.013-.12.006s-.078-.024-.11-.049a.27.27 0 0 1-.077-.332.282.282 0 0 1 .077-.094.254.254 0 0 1 .23-.043zM10.369 27.191a.372.372 0 0 0-.193.219.396.396 0 0 0-.017.149.387.387 0 0 0 .178.289.371.371 0 0 0 .351.019 10.9 10.9 0 0 1 4.99-1.231c1.837.027 3.648.441 5.319 1.216a.357.357 0 0 0 .413-.054.369.369 0 0 0 .092-.413.378.378 0 0 0-.192-.205 13.78 13.78 0 0 0-5.633-1.282 11.6 11.6 0 0 0-5.309 1.293z" />
        </symbol>
        <symbol id="icon-trash" viewBox="0 0 32 32">
            <path stroke-linejoin="round" stroke-linecap="round" stroke-miterlimit="4" stroke-width="2"
                d="M19.653 12l-0.461 12M12.808 24l-0.461-12M25.637 7.72c0.456 0.069 0.909 0.143 1.363 0.221M25.637 7.72l-1.424 18.511c-0.058 0.754-0.399 1.458-0.953 1.971s-1.283 0.799-2.039 0.798h-10.443c-0.756 0-1.484-0.285-2.039-0.798s-0.895-1.217-0.953-1.971l-1.424-18.511M25.637 7.72c-1.539-0.233-3.086-0.409-4.637-0.529M6.363 7.72c-0.456 0.068-0.909 0.141-1.363 0.22M6.363 7.72c1.539-0.233 3.086-0.409 4.637-0.529M21 7.191v-1.221c0-1.573-1.213-2.885-2.787-2.935-1.475-0.047-2.951-0.047-4.427 0-1.573 0.049-2.787 1.363-2.787 2.935v1.221M21 7.191c-3.328-0.257-6.672-0.257-10 0">
            </path>
        </symbol>
        <symbol id="icon-note" viewBox="0 0 32 32">
            <path stroke-linejoin="round" stroke-linecap="round" stroke-miterlimit="4" stroke-width="2"
                d="M22.483 5.983l2.249-2.251c0.469-0.469 1.105-0.732 1.768-0.732s1.299 0.263 1.768 0.732c0.469 0.469 0.732 1.105 0.732 1.768s-0.263 1.299-0.732 1.768l-14.159 14.159c-0.705 0.705-1.574 1.222-2.529 1.507l-3.58 1.067 1.067-3.58c0.284-0.955 0.802-1.824 1.507-2.529l11.909-11.908zM22.483 5.983l3.517 3.517M24 18.667v6.333c0 0.796-0.316 1.559-0.879 2.121s-1.326 0.879-2.121 0.879h-14c-0.796 0-1.559-0.316-2.121-0.879s-0.879-1.326-0.879-2.121v-14c0-0.796 0.316-1.559 0.879-2.121s1.326-0.879 2.121-0.879h6.333">
            </path>
        </symbol>
    </defs>
</svg>

<svg aria-hidden="true" style="position:absolute;width:0;height:0;overflow:hidden" xmlns="http://www.w3.org/2000/svg">
    <defs>
        <symbol id="icon-increment-outline" viewBox="0 0 32 32">
            <path stroke-linejoin="round" stroke-linecap="round" stroke-miterlimit="4" stroke-width="1.3333"
                d="M16 12v8M20 16h-8M28 16c0 1.576-0.31 3.136-0.913 4.592s-1.487 2.779-2.601 3.893c-1.114 1.114-2.437 1.998-3.893 2.601s-3.016 0.913-4.592 0.913-3.136-0.31-4.592-0.913c-1.456-0.603-2.779-1.487-3.893-2.601s-1.998-2.437-2.601-3.893c-0.603-1.456-0.913-3.016-0.913-4.592 0-3.183 1.264-6.235 3.515-8.485s5.303-3.515 8.485-3.515c3.183 0 6.235 1.264 8.485 3.515s3.515 5.303 3.515 8.485z">
            </path>
        </symbol>
        <symbol id="icon-glass" viewBox="0 0 32 32">
            <path fill="#407bff" style="fill:var(--color1, #407bff)"
                d="m5.565 2.783 1.901 26.363v.072h16.367l1.901-26.353v-.082H5.565zm17.596 25.696H8.144L6.718 8.732h.784l1.289 17.403c.008.092.049.177.115.24s.153.098.244.099h.03a.363.363 0 0 0 .247-.124.375.375 0 0 0 .086-.265L8.224 8.734h16.362L23.16 28.481zm1.476-20.485H8.169l-.283-3.847c-.009-.094-.052-.181-.122-.244s-.16-.097-.252-.095c-.095.009-.183.055-.245.129s-.094.169-.088.266l.283 3.795h-.794l-.324-4.483h18.617l-.324 4.478z" />
            <path fill="#407bff" style="fill:var(--color1, #407bff)"
                d="M11.36 12.384c.236 0 .467-.071.663-.204s.349-.322.439-.543a1.229 1.229 0 0 0-.259-1.319 1.187 1.187 0 0 0-1.3-.262c-.218.092-.404.247-.535.446a1.223 1.223 0 0 0 .148 1.528c.223.227.527.355.844.355zm0-1.687a.467.467 0 0 1 .434.294.482.482 0 0 1-.102.52.469.469 0 0 1-.803-.338c0-.127.05-.248.138-.337s.208-.14.333-.14zM11.354 16.318c.003.239.076.472.209.669s.321.35.539.439a1.178 1.178 0 0 0 1.296-.274 1.216 1.216 0 0 0 .248-1.319c-.091-.22-.245-.408-.442-.54a1.18 1.18 0 0 0-1.509.162 1.209 1.209 0 0 0-.342.864zm1.659 0a.47.47 0 0 1-.562.468.47.47 0 0 1-.37-.375.484.484 0 0 1 .2-.49.467.467 0 0 1 .594.06c.089.09.138.211.138.337zM19.834 16.349c.236 0 .467-.071.663-.204s.349-.322.439-.543a1.229 1.229 0 0 0-.259-1.319 1.187 1.187 0 0 0-1.3-.262c-.218.092-.404.247-.535.446a1.223 1.223 0 0 0 .148 1.528c.223.227.527.355.844.355zm0-1.683a.466.466 0 0 1 .435.296.492.492 0 0 1 .026.276.473.473 0 0 1-.372.373.461.461 0 0 1-.482-.207.482.482 0 0 1 .062-.6.469.469 0 0 1 .331-.138zM15.678 14.066c.236 0 .467-.071.663-.204s.349-.322.439-.543A1.229 1.229 0 0 0 16.521 12a1.183 1.183 0 0 0-1.835.184 1.223 1.223 0 0 0 .149 1.528c.224.227.527.355.844.355zm0-1.687a.467.467 0 0 1 .434.294.482.482 0 0 1-.102.52.465.465 0 0 1-.724-.073.481.481 0 0 1-.079-.265.488.488 0 0 1 .128-.354.461.461 0 0 1 .342-.149v.026zM13.402 20.929c.005.197.067.387.178.548s.267.285.448.357a.974.974 0 0 0 1.065-.232 1.005 1.005 0 0 0 .203-1.086 1.001 1.001 0 0 0-.363-.445.975.975 0 0 0-.545-.167c-.264.007-.514.118-.699.309s-.287.449-.287.716zm.986-.267a.262.262 0 0 1 .243.165.27.27 0 0 1-.057.291.264.264 0 0 1-.287.058.262.262 0 0 1-.162-.246c0-.071.028-.139.077-.189s.116-.078.186-.078zM18.17 19.816a1.008 1.008 0 0 0 .962-.614 1.042 1.042 0 0 0-.208-1.133c-.142-.146-.325-.245-.524-.285s-.405-.018-.591.063c-.186.08-.345.216-.454.389a1.042 1.042 0 0 0 .131 1.277c.181.186.426.294.684.304zm0-1.267c.07 0 .137.028.186.078a.27.27 0 0 1 0 .378c-.049.05-.116.078-.186.078s-.138-.028-.188-.078-.079-.118-.08-.189a.282.282 0 0 1 .079-.19.263.263 0 0 1 .189-.076zM20.253 11.538a1.017 1.017 0 0 0 .934-.633 1.037 1.037 0 0 0-.219-1.118.999.999 0 0 0-1.556.155 1.038 1.038 0 0 0 .126 1.295c.189.192.447.3.715.3zm0-1.267c.039-.011.08-.013.12-.006s.078.024.11.049a.27.27 0 0 1 .077.332.282.282 0 0 1-.077.094.254.254 0 0 1-.23.043c-.039.011-.08.013-.12.006s-.078-.024-.11-.049a.27.27 0 0 1-.077-.332.282.282 0 0 1 .077-.094.254.254 0 0 1 .23-.043zM10.369 27.191a.372.372 0 0 0-.193.219.396.396 0 0 0-.017.149.387.387 0 0 0 .178.289.371.371 0 0 0 .351.019 10.9 10.9 0 0 1 4.99-1.231c1.837.027 3.648.441 5.319 1.216a.357.357 0 0 0 .413-.054.369.369 0 0 0 .092-.413.378.378 0 0 0-.192-.205 13.78 13.78 0 0 0-5.633-1.282 11.6 11.6 0 0 0-5.309 1.293z" />
        </symbol>
        <symbol id="icon-trash" viewBox="0 0 32 32">
            <path stroke-linejoin="round" stroke-linecap="round" stroke-width="1.333"
                d="m19.653 12-.461 12m-6.384 0-.461-12m13.29-4.28c.456.069.909.143 1.363.221m-1.363-.221-1.424 18.511A3 3 0 0 1 21.221 29H10.778a2.996 2.996 0 0 1-2.992-2.769L6.362 7.72m19.275 0A63.917 63.917 0 0 0 21 7.191M6.363 7.72c-.456.068-.909.141-1.363.22m1.363-.22A63.917 63.917 0 0 1 11 7.191m10 0V5.97c0-1.573-1.213-2.885-2.787-2.935a69.515 69.515 0 0 0-4.427 0c-1.573.049-2.787 1.363-2.787 2.935v1.221m10.001 0a64.947 64.947 0 0 0-10 0" />
        </symbol>
        <symbol id="icon-note" viewBox="0 0 32 32">
            <path stroke-linejoin="round" stroke-linecap="round" stroke-width="1.333"
                d="m22.483 5.983 2.249-2.251a2.5 2.5 0 0 1 3.536 3.536L14.109 21.427a6.002 6.002 0 0 1-2.529 1.507L8 24.001l1.067-3.58a5.992 5.992 0 0 1 1.507-2.529L22.483 5.984zm0 0L26 9.5m-2 9.167V25a3.004 3.004 0 0 1-3 3H7a3.004 3.004 0 0 1-3-3V11a3.004 3.004 0 0 1 3-3h6.333" />
        </symbol>
    </defs>
</svg>
